src/assets/arrow-right.svg

<svg width="20" height="17" viewBox="0 0 20 17" fill="none" xmlns="http://www.w3.org/2000/svg">
<path d="M1 8.60953C1 8.19531 1.3078 7.85299 1.70716 7.79881L1.81818 7.79135L16.2007 7.792L11.0047 2.61724C10.6845 2.29841 10.6834 1.78037 11.0022 1.46016C11.2921 1.16906 11.7466 1.14168 12.0674 1.37864L12.1593 1.45767L18.7593 8.0293C18.8015 8.07133 18.8382 8.11682 18.8693 8.16485C18.8781 8.17931 18.887 8.1941 18.8955 8.20919C18.9033 8.22212 18.9104 8.23555 18.917 8.24913C18.9263 8.26888 18.9353 8.28929 18.9435 8.31012C18.9501 8.32618 18.9557 8.34179 18.9608 8.35754C18.9668 8.37706 18.9727 8.39786 18.9777 8.41898C18.9814 8.43372 18.9844 8.44791 18.987 8.46216C18.9906 8.48336 18.9937 8.50529 18.9959 8.52749C18.9978 8.54442 18.999 8.56119 18.9996 8.57798C18.9998 8.58816 19 8.59882 19 8.60953L18.9996 8.64122C18.999 8.65728 18.9979 8.67332 18.9963 8.68933L19 8.60953C19 8.66116 18.9952 8.71167 18.9861 8.76065C18.984 8.77235 18.9814 8.78436 18.9786 8.79632C18.9728 8.82095 18.9661 8.84466 18.9584 8.86792C18.9546 8.87947 18.9501 8.89181 18.9454 8.90406C18.9359 8.92868 18.9255 8.95215 18.914 8.97501C18.9087 8.98576 18.9028 8.99702 18.8965 9.00815C18.8863 9.02633 18.8758 9.0436 18.8646 9.06043C18.8568 9.07234 18.8481 9.08474 18.839 9.09695L18.8319 9.10638C18.8099 9.13518 18.786 9.16247 18.7604 9.18807L18.7594 9.18883L12.1594 15.7616C11.8392 16.0804 11.3212 16.0793 11.0023 15.7592C10.7124 15.4681 10.687 15.0135 10.9253 14.6937L11.0047 14.6021L16.1985 9.42836L1.81818 9.42771C1.36631 9.42771 1 9.0614 1 8.60953Z" fill="white"/>
<path d="M19 8.60953C19 8.59882 18.9998 8.58816 18.9996 8.57798C18.999 8.56119 18.9978 8.54442 18.9959 8.52749C18.9937 8.50529 18.9906 8.48336 18.987 8.46216C18.9844 8.44791 18.9814 8.43372 18.9777 8.41898C18.9727 8.39786 18.9668 8.37706 18.9608 8.35754C18.9557 8.34179 18.9501 8.32618 18.9435 8.31012C18.9353 8.28929 18.9263 8.26888 18.917 8.24913C18.9104 8.23555 18.9033 8.22212 18.8955 8.20919C18.887 8.1941 18.8781 8.17931 18.8693 8.16485C18.8382 8.11682 18.8015 8.07133 18.7593 8.0293L12.1593 1.45767L12.0674 1.37865C11.7466 1.14168 11.2921 1.16906 11.0022 1.46016C10.6834 1.78037 10.6845 2.29841 11.0047 2.61724L16.2007 7.792L1.81818 7.79135L1.70716 7.79881C1.3078 7.85299 1 8.19531 1 8.60953C1 9.0614 1.36631 9.42771 1.81818 9.42771L16.1985 9.42836L11.0047 14.6021L10.9253 14.6937C10.687 15.0135 10.7124 15.4681 11.0023 15.7592C11.3212 16.0793 11.8392 16.0804 12.1594 15.7616L18.7594 9.18883L18.7604 9.18807C18.786 9.16247 18.8099 9.13518 18.8319 9.10638L18.839 9.09695C18.8481 9.08474 18.8568 9.07234 18.8646 9.06043C18.8758 9.0436 18.8863 9.02633 18.8965 9.00815C18.9028 8.99702 18.9087 8.98576 18.914 8.97501C18.9255 8.95215 18.9359 8.92868 18.9454 8.90406C18.9501 8.89181 18.9546 8.87947 18.9584 8.86792C18.9661 8.84466 18.9728 8.82095 18.9786 8.79632C18.9814 8.78436 18.984 8.77235 18.9861 8.76065C18.9952 8.71167 19 8.66116 19 8.60953ZM19 8.60953L18.9996 8.64122C18.999 8.65728 18.9979 8.67332 18.9963 8.68933L19 8.60953Z" stroke="white" stroke-width="1.2"/>
</svg>

<svg xmlns="http://www.w3.org/2000/svg" width="20" height="17" fill="none"><path fill="#fff" d="M1 8.61c0-.415.308-.757.707-.811l.111-.008 14.383.001-5.196-5.175a.818.818 0 0 1 1.062-1.238l.092.079 6.6 6.571a.821.821 0 0 1 .241.58v.032a.775.775 0 0 1-.004.048L19 8.61a.827.827 0 0 1-.161.488l-.007.01a.817.817 0 0 1-.072.081l-6.6 6.574a.818.818 0 0 1-1.235-1.068l.08-.092 5.193-5.174H1.818A.818.818 0 0 1 1 8.61Z"/><path stroke="#fff" stroke-width="1.2" d="M19 8.61a1.605 1.605 0 0 0-.004-.083.952.952 0 0 0-.035-.17.652.652 0 0 0-.044-.108.821.821 0 0 0-.158-.22l-6.6-6.571-.092-.08a.818.818 0 0 0-1.062 1.24L16.2 7.791H1.818l-.11.007a.818.818 0 0 0 .11 1.629h14.38l-5.193 5.174-.08.092a.818.818 0 0 0 1.234 1.068l6.6-6.573h.001a.817.817 0 0 0 .072-.083l.007-.01a.743.743 0 0 0 .106-.192A.806.806 0 0 0 19 8.61Zm0 0v.031a.775.775 0 0 1-.004.048L19 8.61Z"/></svg>
